X:275
T:Man of the House, The
M:C|
L:1/8
Q:200
S:THSP
R:reel
D:
Z:
K:Edor
"Em"E2BE GABG|E2BE "D"AFDF|"Em"E2BE GABc
|1 "D"dBAF BEED:|2 "D"dBAF BEE2||:
"Em"efge fgaf|gfed "D"edBd
|1 "Em"e2ge fgaf|gfed "D"Beed:|2 "Em"bgaf gefd|"D"edBG AGFD|]
